images/themes/default/mActionHelpAbout.svg

<svg height="5.28" viewBox="0 0 22 22" width="5.28" xmlns="http://www.w3.org/2000/svg" xmlns:xlink="http://www.w3.org/1999/xlink"><linearGradient id="a"><stop offset="0" stop-color="#589632"/><stop offset="1" stop-color="#93b023"/></linearGradient><linearGradient id="b" gradientUnits="userSpaceOnUse" x1="16.734" x2="16.45" xlink:href="#a" y1="20.11" y2="1.378"/><linearGradient id="c" gradientUnits="userSpaceOnUse" x1="11.153" x2="10.87" xlink:href="#a" y1="20.403" y2="1.827"/><path d="m0 0h22v22h-22z" fill="none"/><path d="m11.757 11.278h2.713l-2.296-2.27h-2.813v2.703l2.396 2.388z" fill="#ee7913"/><path d="m20.458 17.199-4.84-4.786h-2.726v2.817l4.638 4.624h2.928z" fill="url(#b)"/><path d="m12.892 12.413h2.726l-1.148-1.135h-2.713v2.821l1.135 1.131z" fill="#f0e64a"/><path d="m12.326 16.194c-.411.095-.839.146-1.28.146-3.153 0-5.835-2.593-5.835-5.955s2.652-5.898 5.835-5.898 5.718 2.536 5.718 5.898c0 .547-.068 1.073-.194 1.572l2.918 2.918c.753-1.319 1.174-2.852 1.174-4.512 0-5.182-4.136-9.062-9.675-9.062-5.514 0-9.649 3.854-9.649 9.062 0 5.233 4.136 9.164 9.649 9.164 1.424 0 2.754-.262 3.946-.739z" fill="url(#c)"/><path d="m9.361 9.008 11.097 10.846v-2.656l-4.84-4.785-1.148-1.135-2.296-2.27z" fill="#fff" fill-opacity=".172"/></svg>

<?xml version="1.0" encoding="UTF-8"?>
<!DOCTYPE svg PUBLIC "-//W3C//DTD SVG 1.1//EN" "http://www.w3.org/Graphics/SVG/1.1/DTD/svg11.dtd">
<svg version="1.1" xmlns="http://www.w3.org/2000/svg" xmlns:xlink="http://www.w3.org/1999/xlink" x="0" y="0" width="5.28" height="5.28" viewBox="0, 0, 22, 22">
  <g id="Background">
    <rect x="0" y="0" width="22" height="22" fill="#000000" fill-opacity="0"/>
  </g>
  <defs>
    <linearGradient id="Gradient_1" gradientUnits="userSpaceOnUse" x1="16.734" y1="20.11" x2="16.45" y2="1.378" gradientTransform="matrix(1, 0, 0, 1, 0, 0)">
      <stop offset="0" stop-color="#589632"/>
      <stop offset="1" stop-color="#93B023"/>
    </linearGradient>
    <linearGradient id="Gradient_2" gradientUnits="userSpaceOnUse" x1="11.153" y1="20.403" x2="10.87" y2="1.827" gradientTransform="matrix(1, 0, 0, 1, 0, 0)">
      <stop offset="0" stop-color="#589632"/>
      <stop offset="1" stop-color="#93B023"/>
    </linearGradient>
  </defs>
  <g id="Layer_1">
    <path d="M11.757,11.278 L14.47,11.278 L12.174,9.008 L9.361,9.008 L9.361,11.711 L11.757,14.099 z" fill="#EE7913" id="polygon3"/>
    <path d="M20.458,17.199 L15.618,12.413 L12.892,12.413 L12.892,15.23 L17.53,19.854 L20.458,19.854 z" fill="url(#Gradient_1)" id="polygon10"/>
    <path d="M12.892,12.413 L15.618,12.413 L14.47,11.278 L11.757,11.278 L11.757,14.099 L12.892,15.23 z" fill="#F0E64A" id="polygon12"/>
    <path d="M12.326,16.194 C11.915,16.289 11.487,16.34 11.046,16.34 C7.893,16.34 5.211,13.747 5.211,10.385 C5.211,7.023 7.863,4.487 11.046,4.487 C14.229,4.487 16.764,7.023 16.764,10.385 C16.764,10.932 16.696,11.458 16.57,11.957 L19.488,14.875 C20.241,13.556 20.662,12.023 20.662,10.363 C20.662,5.181 16.526,1.301 10.987,1.301 C5.473,1.301 1.338,5.155 1.338,10.363 C1.338,15.596 5.474,19.527 10.987,19.527 C12.411,19.527 13.741,19.265 14.933,18.788 L12.326,16.194 z" fill="url(#Gradient_2)" id="path19"/>
    <path d="M9.361,9.008 L20.458,19.854 L20.458,17.198 L15.618,12.413 L14.47,11.278 L12.174,9.008 z" fill="#FFFFFF" fill-opacity="0.172" id="polygon4153"/>
  </g>
</svg>
